X:23
M:4/4
L:1/4
K:A
V:1
ABcd/c/|defg/f/|edcB/A/|BAGF/G/|ABcd/c/|defg/f/|edc/B/A/c/|B/A/G/F/G>A|A4||
V:2
A2c2|d2f2|e2c2|B2G2|A2c2|d2f2|e2c2|B2G2|A4||
V:3
[EAc]4|[FAd]4|[EAc]4|[EGB]4|[CEA]4|[DFA]4|[EAc]4|[EGB]4|[EAc]4||
V:4
A,,4|A,,4|A,,4|B,,4|C,4|D,4|E,4|E,4|A,,4||
w:I N6/4 I P6/4 I6 IV cad6/4 V I
%
W:1. Complete the keyboard realization on the grand staff.
W:2. Compose a melody skeleton on the middle treble clef staff using only chord tones,
W:   with a rhythm of two half notes per bar and a whole note in m. 8.
W:3. Use the top staff to turn your skeleton into a real melody by adding non-chord tones.

